src/images/short-phone-icon.svg

<svg width="10" height="16" viewBox="0 0 10 16" fill="none" xmlns="http://www.w3.org/2000/svg">
<path d="M8.8373 0H1.1627C0.523313 0 0 0.485943 0 1.08069V14.9189C0 15.5136 0.523313 16 1.1627 16H8.8373C9.47669 16 10 15.5145 10 14.9193V1.08069C10 0.485943 9.47669 0 8.8373 0ZM3.77238 0.778971H6.22762C6.30533 0.778971 6.36829 0.837486 6.36829 0.910171C6.36829 0.9824 6.30533 1.04091 6.22762 1.04091H3.77238C3.69467 1.04091 3.63171 0.9824 3.63171 0.910171C3.63171 0.837486 3.69467 0.778971 3.77238 0.778971ZM5 15.4597C4.67883 15.4597 4.41865 15.2178 4.41865 14.9189C4.41865 14.6199 4.67883 14.3785 5 14.3785C5.32117 14.3785 5.58135 14.6199 5.58135 14.9189C5.58135 15.2178 5.32117 15.4597 5 15.4597ZM9.19093 14H0.809069V1.71383H9.19093V14Z" fill="#1F1E25"/>
</svg>

<svg width="10" height="16" viewBox="0 0 10 16" fill="none" xmlns="http://www.w3.org/2000/svg"><path d="M8.837 0H1.163C.523 0 0 .486 0 1.08v13.84C0 15.514.523 16 1.163 16h7.674c.64 0 1.163-.486 1.163-1.08V1.08C10 .487 9.477 0 8.837 0zM3.772.779h2.456c.077 0 .14.058.14.131 0 .072-.063.13-.14.13H3.772c-.077 0-.14-.058-.14-.13 0-.073.063-.131.14-.131zM5 15.459c-.321 0-.581-.241-.581-.54 0-.3.26-.54.581-.54.321 0 .581.24.581.54 0 .299-.26.54-.581.54zM9.19 14H.81V1.714h8.38V14z" fill="#1F1E25"/></svg>
